packages/sources/icons/src/vitamix/slack-fill.svg

<svg width="16" height="16" viewBox="0 0 16 16" fill="none" xmlns="http://www.w3.org/2000/svg">
<path fill-rule="evenodd" clip-rule="evenodd" d="M6.32408 4.3513C5.60102 4.34874 5.0156 3.76303 5.01341 3.03997C5.01341 2.31797 5.60274 1.72864 6.32474 1.72864C7.04674 1.72864 7.63674 2.31797 7.63674 3.03997V4.35197H6.32408V4.3513ZM3.04008 10.9866C3.76313 10.9844 4.34885 10.399 4.35141 9.67596L4.35208 9.67529V8.36329H3.04008C2.31808 8.36329 1.72874 8.95329 1.72874 9.67529C1.73094 10.3986 2.31676 10.9844 3.04008 10.9866ZM6.32407 8.36397C5.60207 8.36397 5.01273 8.95397 5.01273 9.67597V12.9606C5.01493 13.684 5.60075 14.2698 6.32407 14.272C7.04765 14.2701 7.63387 13.6842 7.63607 12.9606V9.67597C7.63607 8.95397 7.04607 8.36397 6.32407 8.36397ZM7.63608 6.32396C7.63608 5.60196 7.04608 5.01263 6.32408 5.01263H3.04008C2.31808 5.01263 1.72874 5.60196 1.72874 6.32396C1.73057 7.04754 2.3165 7.63376 3.04008 7.63596H6.32408C7.04791 7.63413 7.63424 7.0478 7.63608 6.32396ZM11.6488 6.32396C11.6488 5.60196 12.2388 5.01263 12.9608 5.01263C13.6828 5.01263 14.2721 5.60196 14.2721 6.32396C14.2703 7.04754 13.6844 7.63376 12.9608 7.63596H11.6488V6.32396ZM9.67612 7.63597C10.3997 7.63377 10.9856 7.04755 10.9874 6.32397V3.03997C10.9874 2.31797 10.3981 1.72864 9.67612 1.72864C8.95412 1.72864 8.36412 2.31797 8.36412 3.03997V6.32397C8.36595 7.04781 8.95228 7.63414 9.67612 7.63597ZM9.67612 11.6486C10.3981 11.6486 10.9874 12.2386 10.9874 12.9606C10.9853 13.684 10.3994 14.2698 9.67612 14.272C8.95254 14.2701 8.36631 13.6842 8.36412 12.9606V11.6486H9.67612ZM8.36412 9.67597C8.36631 10.3995 8.95254 10.9855 9.67612 10.9873H12.9608C13.6841 10.9851 14.2699 10.3993 14.2721 9.67597C14.2721 8.95397 13.6828 8.36397 12.9608 8.36397H9.67612C8.95412 8.36397 8.36412 8.95397 8.36412 9.67597Z" fill="#001018"/>
</svg>

<svg width="16" height="16" fill="none" xmlns="http://www.w3.org/2000/svg"><path fill-rule="evenodd" clip-rule="evenodd" d="M6.324 4.351a1.315 1.315 0 0 1-1.31-1.311c0-.722.589-1.311 1.31-1.311.723 0 1.313.589 1.313 1.311v1.312H6.324zM3.04 10.987a1.315 1.315 0 0 0 1.311-1.311h.001V8.362H3.04c-.722 0-1.311.59-1.311 1.312.002.724.588 1.31 1.311 1.312zm3.284-2.623c-.722 0-1.311.59-1.311 1.312v3.285a1.315 1.315 0 0 0 1.311 1.311 1.315 1.315 0 0 0 1.312-1.311V9.676c0-.722-.59-1.312-1.312-1.312zm1.312-2.04c0-.722-.59-1.311-1.312-1.311H3.04c-.722 0-1.311.589-1.311 1.311.002.724.587 1.31 1.311 1.312h3.284a1.315 1.315 0 0 0 1.312-1.312zm4.013 0c0-.722.59-1.311 1.312-1.311.722 0 1.311.589 1.311 1.311a1.315 1.315 0 0 1-1.311 1.312h-1.312V6.324zM9.676 7.636a1.315 1.315 0 0 0 1.311-1.312V3.04c0-.722-.589-1.311-1.31-1.311-.723 0-1.313.589-1.313 1.311v3.284c.002.724.588 1.31 1.312 1.312zm0 4.013c.722 0 1.311.59 1.311 1.312a1.315 1.315 0 0 1-1.31 1.311 1.315 1.315 0 0 1-1.313-1.311v-1.312h1.312zM8.364 9.676c.002.723.589 1.31 1.312 1.311h3.285a1.315 1.315 0 0 0 1.311-1.311c0-.722-.59-1.312-1.311-1.312H9.676c-.722 0-1.312.59-1.312 1.312z" fill="#001018"/></svg>
